X: 143
T:Antwhistle
M:4/4
L:1/8
R:Schottische
Z:Steve Mansfield
K:C
cA | G2GA c2cd | eceg fedc | B2BA G2GA | BGBd cBAG | BccB c2cd |
eceg fedc | B2BA G2Bc | dc2B c2 :: ef | g2gf e2ed | cdeg fedc |
B2BA G2GA | BGBd cBAG | BccB c2cd | eceg fedc | B2BA G2Bc | dc2B c2 :|

